X: 10485
T: Donner Party, The
R: polka
M: 2/4
K: Bminor
|:FB Bd|cA ce|dB Bd|c/B/A BA|
FB Bd|cA ce|dB c/B/A|B2 BA:|
|:d>e fg|ab af|ea ca|ea ec|
B>c de|fb af|ec AB/c/|dB BA:|

